rospo-icon-theme-classic-common/64x64/places/folder-cyan-apple.svg

<svg height="64" width="64" xmlns="http://www.w3.org/2000/svg"><rect height="32" opacity=".2" rx="2.5" width="50" x="7" y="24"/><path d="m7 44.5c0 1.385 1.115 2.5 2.5 2.5h45c1.385 0 2.5-1.115 2.5-2.5v-27c0-1.385-1.115-2.5-2.5-2.5h-25.5v-2.5c0-1.385-1.115-2.5-2.5-2.5h-17c-1.385 0-2.5 1.115-2.5 2.5" fill="#0096aa"/><rect height="32" opacity=".2" rx="2.5" width="50" x="7" y="22"/><rect fill="#e4e4e4" height="20" rx="2.5" width="44" x="10" y="18"/><rect fill="#00bcd4" height="32" rx="2.5" width="50" x="7" y="23"/><path d="m9.5 10c-1.385 0-2.5 1.115-2.5 2.5v1c0-1.385 1.115-2.5 2.5-2.5h17c1.385 0 2.5 1.115 2.5 2.5v-1c0-1.385-1.115-2.5-2.5-2.5zm19.5 5v1h25.5c1.39 0 2.5 1.115 2.5 2.5v-1c0-1.385-1.11-2.5-2.5-2.5z" fill="#fff" opacity=".1"/><path d="m35.98 29c-.991.035-2.195.579-2.906 1.311-.639.65-1.201 1.685-1.051 2.68 1.107.076 2.241-.495 2.93-1.227.688-.734 1.154-1.749 1.027-2.764zm-.656 4.01c-1.315.105-2.516.969-3.196.969-.774 0-1.969-.939-3.238-.914-1.668.027-3.208 1.038-4.067 2.641-1.732 3.226-.446 8.005 1.243 10.622.825 1.281 1.836 2.672 3.105 2.672s1.715-.867 3.219-.867 1.915.867 3.243.867 2.184-1.333 3.004-2.617c.947-1.486 1.34-2.927 1.363-3.001-.03-.014-2.611-1.072-2.637-4.262-.025-2.67 2.034-3.952 2.125-4.015-1.154-1.813-2.953-2.062-3.594-2.09-.191-.021-.382-.019-.57-.004z" fill="#00424a"/></svg>

<svg xmlns="http://www.w3.org/2000/svg" width="64" height="64" version="1.1">
 <rect style="opacity:0.2" width="50" height="32" x="7" y="24" rx="2.5" ry="2.5"/>
 <path style="fill:#0096aa" d="M 7,44.5 C 7,45.885 8.115,47 9.5,47 H 54.5 C 55.885,47 57,45.885 57,44.5 V 17.5 C 57,16.115 55.885,15 54.5,15 H 29 V 12.5 C 29,11.115 27.885,10 26.5,10 H 9.5 C 8.115,10 7,11.115 7,12.5"/>
 <rect style="opacity:0.2" width="50" height="32" x="7" y="22" rx="2.5" ry="2.5"/>
 <rect style="fill:#dcdcdc" width="44" height="20" x="10" y="18" rx="2.5" ry="2.5"/>
 <rect style="fill:#00bcd4" width="50" height="32" x="7" y="23" rx="2.5" ry="2.5"/>
 <path style="opacity:0.1;fill:#ffffff" d="M 9.5,10 C 8.115,10 7,11.115 7,12.5 V 13.5 C 7,12.115 8.115,11 9.5,11 H 26.5 C 27.885,11 29,12.115 29,13.5 V 12.5 C 29,11.115 27.885,10 26.5,10 Z M 29,15 V 16 H 54.5 C 55.89,16 57,17.115 57,18.5 V 17.5 C 57,16.115 55.89,15 54.5,15 Z"/>
 <path style="fill:#00424A" d="M 35.98,29 C 34.989,29.035 33.785,29.579 33.074,30.311 32.435,30.961 31.873,31.996 32.023,32.991 33.13,33.067 34.264,32.496 34.953,31.764 35.641,31.03 36.107,30.015 35.98,29 Z M 35.324,33.01 C 34.009,33.115 32.808,33.979 32.128,33.979 31.354,33.979 30.159,33.04 28.89,33.065 27.222,33.092 25.682,34.103 24.823,35.706 23.091,38.932 24.377,43.711 26.066,46.328 26.891,47.609 27.902,49 29.171,49 30.44,49 30.886,48.133 32.39,48.133 33.894,48.133 34.305,49 35.633,49 36.961,49 37.817,47.667 38.637,46.383 39.584,44.897 39.977,43.456 40,43.382 39.97,43.368 37.389,42.31 37.363,39.12 37.338,36.45 39.397,35.168 39.488,35.105 38.334,33.292 36.535,33.043 35.894,33.015 35.703,32.994 35.512,32.996 35.324,33.011 Z"/>
</svg>
